X: 4280
T: Bobbin' John
R: three-two
M: 3/2
K: Adorian
e2c2 A2B2 ~c4|e2c2 A2c2 Bcd2|e2c2 A2B2 ~c4|B2G2 G2c2 Bcd2:|
|:c2e2 g2f2 ~e4|c2e2 g2f2 e2g2|a3g f2e2 ~d4|B2G2 G2c2 Bcd2:|

